theme/icons/quote.svg

<svg viewBox="0 0 20 20" fill="none" xmlns="http://www.w3.org/2000/svg">
<path d="M2.00144 10.4846C2.02275 8.57636 2.72208 6.74662 3.96019 5.35965C5.1983 3.97268 6.88437 3.13022 8.68272 3L8.72464 3.78256C5.80545 4.64455 4.59849 7.26089 4.45066 9.99052H8.62094C9.22993 9.99052 9.17256 10.4951 9.17256 11.1422V16.4111C9.17256 17.0581 8.67831 16.9986 8.06931 16.9986H2.55307C1.94407 16.9986 2.00144 16.4741 2.00144 15.827V10.4846ZM10.8274 10.4846C10.8487 8.57636 11.5481 6.74662 12.7862 5.35965C14.0243 3.97268 15.7104 3.13022 17.5087 3L17.5506 3.78256C14.6314 4.64572 13.4245 7.26206 13.2778 9.99052H17.4469C18.0559 9.99052 17.9986 10.4951 17.9986 11.1422V16.4111C17.9986 17.0581 17.5043 16.9986 16.8953 16.9986H11.3791C10.7701 16.9986 10.8274 16.4741 10.8274 15.827V10.4846Z" fill="black"/>
</svg>

<svg viewBox="0 0 20 20" xmlns="http://www.w3.org/2000/svg"><path d="M2.001 10.485c.022-1.909.721-3.738 1.96-5.125C5.197 3.973 6.883 3.13 8.682 3l.042.783C5.805 4.645 4.598 7.26 4.45 9.99h4.17c.609 0 .552.504.552 1.151v5.27c0 .646-.495.587-1.104.587H2.553c-.609 0-.552-.525-.552-1.172v-5.342zm8.826 0c.022-1.909.721-3.738 1.96-5.125C14.023 3.973 15.71 3.13 17.508 3l.042.783c-2.92.863-4.126 3.48-4.273 6.208h4.169c.609 0 .552.504.552 1.151v5.27c0 .646-.495.587-1.104.587H11.38c-.609 0-.552-.525-.552-1.172v-5.342z"/></svg>
